X:1
T:James Gibb editions
T:Riu, riu, chiu - Flecha
T:#
%%score [ 1 2 3 4 ]
L:1/8
Q:1/4=120
M:4/4
K:C
V:1 treble nm="Soprano" snm="S"
V:2 treble nm="Alto" snm="A"
V:3 treble nm="Tenor" snm="T"
V:4 bass nm="Bass" snm="B"
V:1
 z8 | z8 | z8 | z8 | z8 | z8 | z8 |[M:4/4] z8 | z8 | z8 | z8 | z8 | z8 | z8 | z8 | %15
w: |||||||||||||||
[M:4/4][K:treble]"^Refrain" A2 A2 G2 A2 | F4 E2 D2- | D2 E2 F2 G2 | A4 A4 | z8 | z4 A2 A2 | %21
w: Ri- u, ri- u,|chi- u, la|* guar- do ri-|be- ra;||Dios guar-|
 G2 A2 F4 | E2 F4 F2 | E2 E2 D4 | D4 z4 | z8 | A2 A2 G2 A2 | F4 E2 D2- | D2 D2 C2 C2 | %29
w: do el lo-|bo de nues-|tra cor- de-|ra.||Dios guar- do el|lo- bo de|* nues- tra cor-|
 D4 !fermata!D4 |][M:4/4] z8 | z8 | z8 | z8 |[M:4/4] z8 | z8 | z8 | z8 |[M:4/4] z8 | z8 | z8 | z8 | %42
w: de- ra.|||||||||||||
[M:4/4] z8 | z8 | z8 | z8 |] %46
w: ||||
V:2
 z8 | z8 | z8 | z8 | z8 | z8 | z8 |[M:4/4] z8 | z8 | z8 | z8 | z8 | z8 | z8 | z8 | %15
w: |||||||||||||||
[M:4/4][K:treble] F2 F2 E2 C2 | D4 E2 F2- | F2 E2 D2 D2 | ^C4 C4 | z8 | E2 E2 D2 C2 | E2 C2 D4 | %22
w: Ri- u, ri- u,|chi- u, la|* guar- do ri-|~be- ra;||Dios guar- do el|lo- bo~̮~el lo-|
 C2 D4 D2 | C2 C2 D4 | D4 z4 | z4 E2 E2 | D2 C2 E2 C2 | D4 C2 A,2- | A,2 A,2 A,2 A,2 | %29
w: bo de nues-|tra cor- de-|ra.|Dios guar-|do el lo- bo,~̮~el|lo- bo de|* nues- tra cor-|
 A,4 !fermata!A,4 |][M:4/4] z8 | z8 | z8 | z8 |[M:4/4] z8 | z8 | z8 | z8 |[M:4/4] z8 | z8 | z8 | %41
w: de- ra.||||||||||||
 z8 |[M:4/4] z8 | z8 | z8 | z8 |] %46
w: |||||
V:3
 z8 | z8 | z8 | z8 | z8 | z8 | z8 |[M:4/4] z8 | z8 | z8 | z8 | z8 | z8 | z8 | z8 | %15
w: |||||||||||||||
[M:4/4][K:treble-8] c2 c2 c2 A2 | A4 A2 A2- | A2 A2 D2 D2 | E4 E4 | z4 =c2 c2 | B2 c2 A4 | %21
w: Ri- u, ri- u,|chi- u, la|* guar- do ri-|be- ra;|Dios guar-|do el lo-|
 B2 A2 A4 | A2 A4 A2 | A2 A2 A4 | A4 z4 | c2 c2 B2 c2 | A4 B2 A2 | A4 A2 F2- | F2 F2 E2 E2 | %29
w: bo, el lo-|bo de nues-|tra cor- de-|ra.|Dios guar- do el|lo- bo, el|lo- bo de|* nues- tra cor-|
 D4 !fermata!D4 |][M:4/4] z8 | z8 | z8 | z8 |[M:4/4] z8 | z8 | z8 | z8 |[M:4/4] z8 | z8 | z8 | z8 | %42
w: de- ra.|||||||||||||
[M:4/4] z8 | z8 | z8 | z8 |] %46
w: ||||
V:4
"^Riu, riu, chiu""^Mateo Flecha el Viejo\n(1481-1553)" A,2 A,2 G,2 A,2 | F,4 E,2 D,2- | %2
w: Ri- u, ri- u,|chi- u, la|
w: ||
w: ||
w: ||
w: ||
w: ||
w: ||
 D,2 E,2 F,2 G,2 | A,4 A,4 | z8 | z4 A,2 A,2 | G,2 A,2 F,4 | E,2 G,4 G,2 | E,2 F,2 D,4 | D,4 z4 | %10
w: * guar- do ri-|be- ra,||Dios guar-|do el lo-|bo de nues-|tra cor- de-|ra,|
w: ||||||||
w: ||||||||
w: ||||||||
w: ||||||||
w: ||||||||
w: ||||||||
 z8 | A,2 A,2 G,2 A,2 | F,4 E,2 G,2- | G,2 G,2 E,2 F,2 | D,4 D,4 |[M:4/4] F,2 F,2 C,2 F,2 | %16
w: |Dios guar- do el|lo- bo de|* nues- tra cor-|de- ra,|Ri- u, ri- u,|
w: ||||||
w: ||||||
w: ||||||
w: ||||||
w: ||||||
w: ||||||
 D,4 A,,2 D,2- | D,2 C,2 _B,,2 B,,2 | A,,4 A,,4 | z4 A,2 A,2 | G,2 A,2 F,4 | E,2 F,2 D,4 | %22
w: chi- u, la|* guar- do ri-|be- ra;|Dios guar-|do el lo-|bo, el lo-|
w: ||||||
w: ||||||
w: ||||||
w: ||||||
w: ||||||
w: ||||||
 A,,2 D,4 D,2 | A,,2 A,,2 D,4 | D,4 z4 | A,2 A,2 G,2 A,2 | F,4 E,2 F,2 | D,4 A,,2 D,2- | %28
w: bo de nues-|tra cor- de-|ra.|Dios guar- do el|lo- bo, el|lo- bo de|
w: ||||||
w: ||||||
w: ||||||
w: ||||||
w: ||||||
w: ||||||
 D,2 D,2 A,,2 A,,2 | D,4 !fermata!D,4 |] A,2 A,2 G,2 A,2 | F,4 E,2 G,2- | G,2 G,2 E,2 F,2 | %33
w: * nues- tra cor-|de- ra.|El lo- bo ra-|bio- so la|* qui- so mor-|
w: ||Es- te qu'es na-|ci- do es|* el gran mon-|
w: ||Mu- chas pro- fe-|ci- as lo~̮~han|* pro- fe- ti-|
w: ||Yo vi mil gar-|zo- nes que~̮~an|* da- ban can-|
w: ||Es- te vie- ne~̮~a|dar a los|* muer- tos vi-|
w: ||Mi- ra bien queos|qua- dre que~̮~an|* si- na lo~̮~o-|
w: ||Pues que ya te-|ne- mos lo|* que des- sea-|
 D,4- D,4 | A,2 A,2 G,2 A,2 | F,4 F,2 E,2 | G,2 G,2 E,2 F,2 | D,4- D,4 | A,2 A,2 G,2 A,2 | %39
w: der, *|Mas Dios po- de-|ro- so la|su- po de- fen-|der; *|Qui so- la ha-|
w: ar- cha,|Chri- sto pa- tri-|ar- ca, de|car- ne ves- ti-|do: *|ha- nos re- di-|
w: za- do,|Ya~̮~un en nues- tros|di- as lo|he- mos al con-|sa- do,|A- dios hu- ma-|
w: tan- do,|por a- quí vo-|lan- do, ha-|cien- do mil so-|nes, *|di- cien- do~̮~a gas-|
w: da *|y~̮~vie- ne a re-|pa- rar de-|to- dos la caí-|da, *|es la luz del|
w: ye- ra|Que Dios no pu-|die- ra ha-|cer la mas que|ma- dre,|El que- ra su|
w: mos *|to- dos jun- tos|va- mos pre-|sen- tes lle- ve-|mos; *|to- dos le da-|
 F,4 F,2 E,2 | D,2 E,2 F,2 G,2 | A,4- A,4 | A,2 A,2 G,2 A,2 | F,4 F,2 E,2 | G,2 G,2 E,2 F,2 | %45
w: zer que no|pu- die- se pe-|car, *|Nia~̮~un o- ri- gi-|nal es- ta|Vir- gen no tu-|
w: mi- do con|se ha- cer chi-|qui- to,|a~̮~un que- ra~̮~in- fi-|ni- to, fi-|ni- to se hi-|
w: na- do ve-|mos en el sue-|lo, *|Y al hom- bre|nel cie- lo|por- quel le qui-|
w: co- nes: "Glo-|ria sea en el|cie- lo,|y paz en el|sue- lo", pues|de sus na- sci-|
w: dí- a a-|ques- te mo- zu-|e- lo;|es- t'es el cor-|de- ro que|San Ju- an di-|
w: pa- dre hoy|del- la na- sci-|o, *|Y el que la|dri- o su|hi- jo so di-|
w: re- mos mu-|es- tra vo- lun-|tad, *|pues a se~̮~i- gu-|lar con el|hom- bre vi- ni-|
 D,4"^Refrain" D,4 |] %46
w: vie- ra.|
w: zie- ra.|
w: ste- ra.|
w: e- ra.|
w: xe- ra.|
w: xe- ra.|
w: e- ra.|

